X: 1
T: Capuchin, The
M: 6/8
K:D
A|:d2 d dcd| e2 e efg|fed dcd| ecA A2 A|
d2 d dcd| e2 e efg| fed edc|1 ~d3 d2 A:|~d3 d2 g||
~f3 fdf|~g3 gbg|~f3 fed|ecA A2 Ag|
~f3 fdf|~g3 gbg|fed edc|1 ~d3 d2 g:|2 ~d3 d2 A||
